src/main/resources/icons/HandlebarsIcons/META-INF/pluginIcon_dark.svg

<svg xmlns="http://www.w3.org/2000/svg" xmlns:xlink="http://www.w3.org/1999/xlink" width="40" height="40" viewBox="0 0 40 40"><rect id="frame" width="40" height="40" fill="none"/><defs><path id="a" d="M0 0h36v12H0z"/></defs><g fill="none" fill-rule="evenodd" transform="translate(2 12)"><mask id="b" fill="#fff"><use xlink:href="#a"/></mask><path fill="#A49E96" d="M13.249 0a4.573 4.573 0 0 1 3.508 1.6c.498.556.901 1.252 1.243 1.994.615-1.369 1.514-2.532 2.622-3.092 1.351-.698 2.877-.65 4.225.034 1.177.592 2.207 1.623 3.14 2.756.731.888 1.408 1.859 2.159 2.713.397.443.823.858 1.31 1.087.648.304 1.414.017 1.878-.67.429-.643.402-1.754-.07-2.341-.301-.357-.815-.286-1.028.19-.185.377-.081.848.065 1.213-.388-.388-.776-.931-.774-1.638-.08-.818.361-1.539.889-1.825 1.03-.567 2.322-.079 2.973 1.17.625 1.165.674 2.697.565 4.084-.131 1.319-.667 2.549-1.461 3.312-1.115 1.096-2.529 1.435-3.874 1.412-1.293-.049-2.572-.45-3.77-1.115-2.003-1.108-3.877-2.64-5.946-3.525a5.514 5.514 0 0 0-2.149-.626c-.584-.005-1.138-.043-1.69.009a5.71 5.71 0 0 0-1.971.618c-2.104.9-4.006 2.471-6.048 3.581-1.723.923-3.633 1.352-5.462.839-1.023-.285-2.042-.908-2.732-2.017C.259 8.82-.024 7.558.004 6.32c-.033-1.167.153-2.407.714-3.316.521-.861 1.362-1.298 2.169-1.202.519.033 1.046.345 1.367.921.252.455.267 1.079.157 1.611a2.53 2.53 0 0 1-.715 1.141c.154-.358.247-.831.066-1.205-.225-.498-.778-.548-1.07-.139-.359.509-.434 1.341-.193 1.964.262.655.803 1.027 1.327 1.103.793.094 1.481-.582 2.062-1.238 1.204-1.426 2.288-3.059 3.624-4.265C10.613.679 11.91-.008 13.249 0" mask="url(#b)"/></g></svg>

<svg xmlns="http://www.w3.org/2000/svg" xmlns:xlink="http://www.w3.org/1999/xlink" width="40" height="40" viewBox="0 0 40 40">
  <defs>
    <polygon id="handlebarsmustache_dark-a" points="0 0 36 0 36 12 0 12"/>
  </defs>
  <g fill="none" fill-rule="evenodd" transform="translate(2 12)">
    <mask id="handlebarsmustache_dark-b" fill="#fff">
      <use xlink:href="#handlebarsmustache_dark-a"/>
    </mask>
    <path fill="#A49E96" d="M13.249,3.7903708e-16 C14.501,-0.007 15.784,0.487 16.757,1.6 C17.255,2.156 17.658,2.852 18,3.594 C18.615,2.225 19.514,1.062 20.622,0.502 C21.973,-0.196 23.499,-0.148 24.847,0.536 C26.024,1.128 27.054,2.159 27.987,3.292 C28.718,4.18 29.395,5.151 30.146,6.005 C30.543,6.448 30.969,6.863 31.456,7.092 C32.104,7.396 32.87,7.109 33.334,6.422 C33.763,5.779 33.736,4.668 33.264,4.081 C32.963,3.724 32.449,3.795 32.236,4.271 C32.051,4.648 32.155,5.119 32.301,5.484 C31.913,5.096 31.525,4.553 31.527,3.846 C31.447,3.028 31.888,2.307 32.416,2.021 C33.446,1.454 34.738,1.942 35.389,3.191 C36.014,4.356 36.063,5.888 35.954,7.275 C35.823,8.594 35.287,9.824 34.493,10.587 C33.378,11.683 31.964,12.022 30.619,11.999 C29.326,11.95 28.047,11.549 26.849,10.884 C24.846,9.776 22.972,8.244 20.903,7.359 C20.217,6.993 19.487,6.794 18.754,6.733 C18.17,6.728 17.616,6.69 17.064,6.742 C16.392,6.831 15.723,7.021 15.093,7.36 C12.989,8.26 11.087,9.831 9.045,10.941 C7.322,11.864 5.412,12.293 3.583,11.78 C2.56,11.495 1.541,10.872 0.851,9.763 C0.259,8.82 -0.024,7.558 0.004,6.32 C-0.029,5.153 0.157,3.913 0.718,3.004 C1.239,2.143 2.08,1.706 2.887,1.802 C3.406,1.835 3.933,2.147 4.254,2.723 C4.506,3.178 4.521,3.802 4.411,4.334 C4.276,4.813 3.998,5.187 3.696,5.475 C3.85,5.117 3.943,4.644 3.762,4.27 C3.537,3.772 2.984,3.722 2.692,4.131 C2.333,4.64 2.258,5.472 2.499,6.095 C2.761,6.75 3.302,7.122 3.826,7.198 C4.619,7.292 5.307,6.616 5.888,5.96 C7.092,4.534 8.176,2.901 9.512,1.695 C10.613,0.679 11.91,-0.008 13.249,3.7903708e-16" mask="url(#handlebarsmustache_dark-b)"/>
  </g>
</svg>
